svg/fluentui-system-icons/ic_fluent_document_queue_add_20_filled.svg

<svg width="20" height="20" viewBox="0 0 20 20" fill="none" xmlns="http://www.w3.org/2000/svg">
<path d="M10 6.5V2H5.5C4.67157 2 4 2.67157 4 3.5V14.5C4 15.3284 4.67157 16 5.5 16H9.20703C9.07217 15.5232 9 15.02 9 14.5C9 11.4624 11.4624 9 14.5 9C15.02 9 15.5232 9.07217 16 9.20703V8H11.5C10.6716 8 10 7.32843 10 6.5ZM6 5.5C6 5.22386 6.22386 5 6.5 5H8.5C8.77614 5 9 5.22386 9 5.5C9 5.77614 8.77614 6 8.5 6H6.5C6.22386 6 6 5.77614 6 5.5ZM6.5 7H8.5C8.77614 7 9 7.22386 9 7.5C9 7.77614 8.77614 8 8.5 8H6.5C6.22386 8 6 7.77614 6 7.5C6 7.22386 6.22386 7 6.5 7ZM6 9.5C6 9.22386 6.22386 9 6.5 9H8.5C8.77614 9 9 9.22386 9 9.5C9 9.77614 8.77614 10 8.5 10H6.5C6.22386 10 6 9.77614 6 9.5ZM5.5 17H9.59971C9.78261 17.3578 10.0035 17.6929 10.2572 18H5.5C3.567 18 2 16.433 2 14.5V13.5C2 13.2239 2.22386 13 2.5 13C2.77614 13 3 13.2239 3 13.5V14.5C3 15.8807 4.11929 17 5.5 17ZM11 6.5V2.25L15.75 7H11.5C11.2239 7 11 6.77614 11 6.5ZM19 14.5C19 16.9853 16.9853 19 14.5 19C12.0147 19 10 16.9853 10 14.5C10 12.0147 12.0147 10 14.5 10C16.9853 10 19 12.0147 19 14.5ZM15 12.5C15 12.2239 14.7761 12 14.5 12C14.2239 12 14 12.2239 14 12.5V14H12.5C12.2239 14 12 14.2239 12 14.5C12 14.7761 12.2239 15 12.5 15H14V16.5C14 16.7761 14.2239 17 14.5 17C14.7761 17 15 16.7761 15 16.5V15H16.5C16.7761 15 17 14.7761 17 14.5C17 14.2239 16.7761 14 16.5 14H15V12.5Z" fill="#212121"/>
</svg>

<svg xmlns="http://www.w3.org/2000/svg" width="20" height="20"><path d="M10 6.5V2H5.5A1.5 1.5 0 0 0 4 3.5v11A1.5 1.5 0 0 0 5.5 16h3.707A5.5 5.5 0 0 1 16 9.207V8h-4.5A1.5 1.5 0 0 1 10 6.5Zm-4-1a.5.5 0 0 1 .5-.5h2a.5.5 0 0 1 0 1h-2a.5.5 0 0 1-.5-.5ZM6.5 7h2a.5.5 0 0 1 0 1h-2a.5.5 0 0 1 0-1ZM6 9.5a.5.5 0 0 1 .5-.5h2a.5.5 0 0 1 0 1h-2a.5.5 0 0 1-.5-.5ZM5.5 17h4.1c.183.358.404.693.657 1H5.5A3.5 3.5 0 0 1 2 14.5v-1a.5.5 0 0 1 1 0v1A2.5 2.5 0 0 0 5.5 17ZM11 6.5V2.25L15.75 7H11.5a.5.5 0 0 1-.5-.5Zm8 8a4.5 4.5 0 1 1-9 0 4.5 4.5 0 0 1 9 0Zm-4-2a.5.5 0 0 0-1 0V14h-1.5a.5.5 0 0 0 0 1H14v1.5a.5.5 0 0 0 1 0V15h1.5a.5.5 0 0 0 0-1H15v-1.5Z"/></svg>
